X: 10661
M: 2/4
L: 1/16
K: D
(3(GFE) |\
|: (ag) |\
(fd)dd fdad | fd(3(efg) a2ed | cAAA ceAe | cdef g2eg |\
(fd)dd fdad | fd(3(efg) a2gf | gbag fed[ec] | d2d2d2 :|


